lib/preview_tmp/nrk-logo-preview-nrk-sport-on-light.svg

<svg width="95" height="24" viewBox="0 0 95 24" fill="none" xmlns="http://www.w3.org/2000/svg">
<path d="M0 18.9967V4.99794H4.59339V18.9967H0ZM10.8428 7.22591L13.4844 18.9967H8.45737L5.30307 4.99794H8.12254C8.76907 4.98954 9.39641 5.21745 9.88691 5.63878C10.3782 6.04244 10.7158 6.60281 10.8428 7.22591ZM14.1744 18.9967V4.99794H18.7678V18.9967H14.1744ZM22.2372 10.3214C21.7422 10.3263 21.2552 10.1968 20.828 9.94679C20.4064 9.70314 20.0563 9.35295 19.8127 8.93136C19.5624 8.50405 19.4329 8.01688 19.4378 7.5217C19.4321 7.02953 19.5618 6.54527 19.8127 6.12183C20.0589 5.70482 20.4086 5.35844 20.828 5.11627C21.2553 4.86658 21.7423 4.7371 22.2372 4.74161C22.7292 4.73631 23.2133 4.86591 23.6369 5.11627C24.0521 5.36056 24.3981 5.70665 24.6424 6.12183C24.893 6.54539 25.0226 7.02957 25.0172 7.5217C25.0218 8.01685 24.8923 8.50393 24.6424 8.93136C24.4007 9.3511 24.0542 9.70099 23.6369 9.94679C23.2133 10.1976 22.7289 10.3273 22.2366 10.3214H22.2372ZM25.7269 18.9967V4.99794H30.3207V18.9967H25.7269ZM36.136 12.6479C36.1489 12.6615 36.2475 12.8225 36.4317 13.131C36.6159 13.4394 36.8558 13.8338 37.1513 14.314C37.447 14.794 37.759 15.3033 38.0874 15.842C38.4157 16.3807 38.7247 16.8901 39.0143 17.3701C39.3028 17.8501 39.6313 18.3922 40 18.9967H34.9531C34.6375 18.484 34.3515 18.0207 34.0952 17.6067C33.8389 17.1926 33.5665 16.7457 33.2778 16.2659C32.9884 15.7866 32.7024 15.32 32.4196 14.866C32.1368 14.4121 31.8938 14.0145 31.6905 13.6732C31.4863 13.3317 31.3449 13.1016 31.2663 12.9831C31.0713 12.689 30.9559 12.3493 30.9315 11.9973C30.951 11.6594 31.0597 11.3328 31.2466 11.0506C31.3254 10.9192 31.47 10.6858 31.6803 10.3506C31.8906 10.0155 32.137 9.61789 32.4196 9.15784C32.7021 8.69779 32.9882 8.22787 33.2778 7.7481C33.5674 7.26833 33.8398 6.8181 34.0952 6.39749C34.3519 5.97731 34.6379 5.51068 34.9531 4.99761H40L36.0962 11.3661C35.9754 11.5552 35.9073 11.7731 35.8991 11.9973C35.9121 12.2327 35.9942 12.459 36.1353 12.6479H36.136Z" fill="#0A2343"/>
<path d="M53.9268 12.4452C53.6396 12.1527 53.3063 11.9093 52.9402 11.725C52.5564 11.5307 52.1571 11.369 51.7464 11.2415C51.3254 11.11 50.8913 10.9981 50.444 10.9058C50.1016 10.827 49.7825 10.7482 49.487 10.6693C49.2154 10.5991 48.9511 10.5032 48.6977 10.3829C48.4799 10.2797 48.2775 10.1469 48.0962 9.98822C47.9254 9.8377 47.7933 9.64829 47.7111 9.43602C47.6203 9.18632 47.5769 8.92188 47.5832 8.65626C47.5788 8.38122 47.622 8.10751 47.7111 7.84724C47.7921 7.61769 47.9275 7.41116 48.1057 7.24537C48.2904 7.07627 48.5001 6.93664 48.7273 6.83135C48.9873 6.71284 49.2632 6.63303 49.5462 6.59453C49.8828 6.54655 50.2224 6.52348 50.5624 6.52548C50.8722 6.52608 51.1817 6.54245 51.4898 6.5745C51.8015 6.60703 52.1111 6.65652 52.4173 6.7228C52.7147 6.78731 53.0079 6.86967 53.2954 6.96945C53.5645 7.06202 53.8253 7.17746 54.0748 7.31447L54.351 5.57832C54.0705 5.43193 53.7764 5.31299 53.473 5.22315C53.1638 5.13128 52.8514 5.05222 52.5356 4.986C52.2161 4.91997 51.8934 4.87069 51.5688 4.83835C51.2399 4.80546 50.9044 4.78901 50.5624 4.78901C49.8646 4.78143 49.1686 4.86086 48.4905 5.02547C47.913 5.16494 47.3673 5.41283 46.8823 5.75592C46.4355 6.07648 46.076 6.5037 45.8365 6.99872C45.5811 7.55514 45.4562 8.16259 45.4714 8.77465C45.4601 9.24832 45.537 9.71995 45.6983 10.1655C45.8399 10.539 46.0584 10.8786 46.3397 11.1623C46.6178 11.4399 46.9372 11.6729 47.2865 11.8529C47.657 12.0438 48.0434 12.2024 48.4412 12.3268C48.8555 12.4584 49.2798 12.5702 49.7139 12.6623C50.0691 12.741 50.398 12.8232 50.7006 12.909C50.982 12.9865 51.2561 13.0889 51.5195 13.2148C51.7459 13.3217 51.9553 13.4613 52.141 13.6292C52.3173 13.7948 52.4553 13.9968 52.5455 14.2212C52.6501 14.4915 52.7003 14.7798 52.6935 15.0696C52.6987 15.3778 52.652 15.6847 52.5554 15.9773C52.4688 16.2305 52.3349 16.4649 52.1608 16.668C51.9857 16.8681 51.7705 17.0294 51.5293 17.1413C51.2565 17.2669 50.9675 17.3533 50.6706 17.3981C50.3084 17.4537 49.9422 17.4801 49.5758 17.477C49.2195 17.4761 48.8636 17.453 48.5102 17.4079C48.1419 17.3619 47.7736 17.2993 47.4052 17.2202C47.0422 17.1429 46.6833 17.0474 46.3298 16.9341C45.9812 16.8229 45.649 16.7079 45.3333 16.589L45.5898 18.5426C45.9262 18.6681 46.2686 18.7767 46.6159 18.8678C46.9312 18.9506 47.2507 19.0165 47.573 19.0652C47.8817 19.111 48.1908 19.1471 48.5003 19.1737C48.8099 19.2002 49.1223 19.2134 49.4373 19.2131C50.1438 19.2176 50.8485 19.1448 51.5391 18.9961C52.1505 18.8679 52.7327 18.627 53.2559 18.2857C53.744 17.9626 54.1388 17.5169 54.4004 16.9932C54.6887 16.373 54.8273 15.6937 54.8049 15.0101C54.8156 14.5008 54.7388 13.9935 54.5779 13.5101C54.4403 13.1123 54.2182 12.749 53.9268 12.4452Z" fill="#E81502"/>
<path d="M64.7797 9.33736C64.0715 8.90376 63.2516 8.68762 62.4217 8.71578C61.9291 8.71821 61.4387 8.78105 60.9615 8.9029C60.4457 9.03423 59.9485 9.22991 59.4816 9.48534C59.3888 9.53533 59.2967 9.59157 59.2053 9.64781V8.73549L57.1926 9.05124V23.1399H59.2053V18.7221C59.2188 18.7277 59.2313 18.734 59.2448 18.7399C59.6094 18.8912 59.99 19.0004 60.3794 19.0655C60.839 19.1413 61.3043 19.1776 61.7702 19.174C62.6587 19.1893 63.5348 18.9642 64.3058 18.5225C65.063 18.0738 65.6785 17.4208 66.0817 16.6384C66.5477 15.7055 66.7748 14.6715 66.7427 13.6292C66.7613 12.7478 66.5896 11.8729 66.2392 11.064C65.9308 10.3588 65.4236 9.75887 64.7797 9.33736ZM64.2568 15.9379C64.0198 16.4618 63.6224 16.897 63.1221 17.1807C62.566 17.4721 61.9441 17.6149 61.3166 17.5954C61.016 17.5956 60.7158 17.5724 60.4188 17.526C60.1071 17.4763 59.8002 17.4006 59.5012 17.2994C59.4065 17.2665 59.3039 17.229 59.2053 17.1929V10.9656C59.2313 10.9534 59.2582 10.9377 59.2842 10.9258C59.5734 10.7943 59.8431 10.6823 60.0932 10.59C60.3299 10.5016 60.5743 10.4356 60.8233 10.3927C61.0449 10.3545 61.2693 10.3347 61.4942 10.3335C62.1025 10.3133 62.7061 10.4456 63.2501 10.7183C63.7259 10.9773 64.0985 11.3916 64.3058 11.892C64.5567 12.5325 64.6742 13.2173 64.6511 13.9048C64.6721 14.6033 64.5374 15.2978 64.2568 15.9379Z" fill="#E81502"/>
<path d="M76.3626 9.34714C75.5405 8.91022 74.6196 8.69277 73.6889 8.71573C72.7496 8.69418 71.8209 8.91866 70.9951 9.36689C70.2328 9.79348 69.6093 10.4306 69.1994 11.202C68.7541 12.0673 68.5336 13.0308 68.5581 14.0037C68.533 14.9691 68.7394 15.9265 69.16 16.7958C69.538 17.5547 70.141 18.1785 70.8866 18.582C71.6893 19.0024 72.5853 19.2127 73.4912 19.1934C74.4396 19.2122 75.377 18.9881 76.2143 18.5425C76.9962 18.116 77.6373 17.4715 78.0597 16.6873C78.5178 15.8118 78.7453 14.834 78.7207 13.8462C78.7431 12.9052 78.5328 11.9732 78.1087 11.1329C77.7155 10.3785 77.108 9.75714 76.3626 9.34714ZM76.244 15.9576C76.0222 16.4702 75.6465 16.9012 75.1688 17.1908C74.6888 17.4656 74.1433 17.6053 73.5902 17.5954C73.0478 17.6088 72.5131 17.4648 72.0508 17.1806C71.5935 16.8769 71.2364 16.4444 71.0247 15.9378C70.7561 15.2879 70.6284 14.5885 70.6498 13.8856C70.6265 13.2017 70.7545 12.521 71.0247 11.8923C71.2461 11.3981 71.6149 10.9846 72.0807 10.7084C72.5784 10.4342 73.1403 10.298 73.7083 10.3137C74.1518 10.3026 74.5926 10.3867 75.0008 10.5604C75.3584 10.7218 75.6704 10.9694 75.9088 11.2809C76.1631 11.6194 76.3474 12.0051 76.4511 12.4156C76.5744 12.8957 76.6341 13.3899 76.6287 13.8856C76.6517 14.596 76.5207 15.3029 76.244 15.9576Z" fill="#E81502"/>
<path d="M85.291 8.86341C84.922 8.9626 84.5696 9.11552 84.2451 9.31726C83.9086 9.52753 83.5975 9.77582 83.3178 10.0572C83.2711 10.1039 83.226 10.1559 83.1796 10.2049V8.73546L81.1669 9.03146V18.9964H83.1796V11.5414C83.3291 11.4369 83.4839 11.3401 83.6433 11.2514C83.8407 11.1424 84.0451 11.0468 84.2553 10.9652C84.459 10.8863 84.6661 10.8173 84.8766 10.7581C85.0932 10.6977 85.3143 10.6547 85.5377 10.6295C85.7768 10.6032 86.0177 10.5967 86.2579 10.6101L86.4947 8.75489C86.0902 8.72613 85.6838 8.76276 85.291 8.86341Z" fill="#E81502"/>
<path d="M93.8549 17.3488C93.7625 17.3685 93.6605 17.3879 93.5487 17.4079L93.2136 17.4668C93.1059 17.4863 92.9972 17.4996 92.888 17.5066C92.7823 17.5132 92.6837 17.5165 92.592 17.5165C92.2897 17.5246 91.9894 17.4638 91.7139 17.3389C91.4772 17.2265 91.2808 17.0439 91.1515 16.816C91.0133 16.5585 90.9453 16.2691 90.9543 15.977V10.5114H93.7365L93.9536 8.93282H90.9543V5.81541L88.9415 6.52579V8.93282H87.4221L87.2047 10.5114H88.9415V16.3917C88.9325 16.7839 88.9927 17.1747 89.1191 17.5461C89.2207 17.8398 89.3781 18.1111 89.5828 18.3449C89.7704 18.5535 89.9987 18.7214 90.2537 18.8382C90.5145 18.9583 90.7896 19.0446 91.0723 19.0951C91.3522 19.1466 91.6362 19.1731 91.9208 19.174C92.1313 19.174 92.3385 19.1673 92.5427 19.154C92.7468 19.1406 92.9343 19.1209 93.1051 19.0951C93.2758 19.0684 93.4373 19.0388 93.5886 19.0059C93.7398 18.9731 93.8677 18.9441 93.973 18.9175L94.0917 17.2793C94.0149 17.3091 93.9356 17.3323 93.8549 17.3488Z" fill="#E81502"/>
</svg>

<svg xmlns="http://www.w3.org/2000/svg" viewBox="0 0 95 24"><path fill="#0A2343" d="M0 18.997v-14h4.593v14H0ZM10.843 7.226l2.641 11.77H8.457L5.303 4.999h2.82a2.655 2.655 0 0 1 1.764.64c.491.404.829.965.956 1.588Zm3.331 11.77V4.999h4.594v13.999h-4.594Zm8.063-8.675a2.736 2.736 0 0 1-1.409-.374 2.778 2.778 0 0 1-1.015-1.016 2.735 2.735 0 0 1-.375-1.41 2.685 2.685 0 0 1 .375-1.4 2.812 2.812 0 0 1 3.824-1.005c.415.245.761.59 1.005 1.006.251.423.38.908.375 1.4.005.495-.125.982-.375 1.41a2.8 2.8 0 0 1-1.005 1.015c-.424.25-.908.38-1.4.374Zm3.49 8.676v-14h4.594v14h-4.594Zm10.409-6.35c.013.014.111.175.296.484.184.308.424.703.72 1.183a384.573 384.573 0 0 1 1.862 3.056c.289.48.617 1.022.986 1.627h-5.047l-.858-1.39c-.256-.414-.529-.861-.817-1.341a118.3 118.3 0 0 0-.858-1.4 71.148 71.148 0 0 1-.73-1.193 21.119 21.119 0 0 0-.424-.69 2.04 2.04 0 0 1-.334-.986c.019-.338.128-.664.315-.946.078-.132.223-.365.433-.7a216.7 216.7 0 0 0 1.598-2.603l.817-1.35.858-1.4H40l-3.904 6.368c-.12.19-.189.407-.197.631.013.236.095.462.236.65h.001Z"/><path fill="#E81502" d="M53.927 12.445a3.74 3.74 0 0 0-.987-.72 7.692 7.692 0 0 0-1.194-.483 13.55 13.55 0 0 0-1.302-.336 28.51 28.51 0 0 1-.957-.237 4.419 4.419 0 0 1-.79-.286 2.61 2.61 0 0 1-.6-.395 1.42 1.42 0 0 1-.386-.552 2.134 2.134 0 0 1-.128-.78 2.38 2.38 0 0 1 .128-.809c.081-.23.217-.436.395-.602a2.44 2.44 0 0 1 .621-.414c.26-.118.536-.198.82-.236a6.912 6.912 0 0 1 1.015-.07c.31.001.62.017.928.05.311.032.621.082.927.148.298.064.59.147.878.246.27.093.53.208.78.345l.276-1.736a4.912 4.912 0 0 0-.878-.355c-.31-.092-.622-.17-.937-.237a9.364 9.364 0 0 0-.967-.148 10.11 10.11 0 0 0-1.007-.049 8.396 8.396 0 0 0-2.072.236 4.692 4.692 0 0 0-1.608.73c-.447.321-.806.749-1.045 1.244a4.018 4.018 0 0 0-.366 1.776c-.01.473.066.945.227 1.39.142.374.36.714.642.997.278.278.597.51.946.69.371.192.757.35 1.155.475.414.131.839.243 1.273.335.355.079.684.161.987.247.281.077.555.18.819.306.226.107.435.246.621.414.176.166.314.368.404.592.105.27.155.559.148.849.006.308-.041.615-.138.907a2.11 2.11 0 0 1-.394.691c-.175.2-.39.361-.632.473a3.192 3.192 0 0 1-.858.257 6.835 6.835 0 0 1-1.095.079 8.59 8.59 0 0 1-1.066-.07 12.845 12.845 0 0 1-1.105-.187 11.094 11.094 0 0 1-1.075-.286c-.349-.111-.681-.226-.997-.345l.257 1.954c.336.125.679.234 1.026.325.315.083.635.149.957.197.309.046.618.082.927.109.31.026.622.04.937.04a9.691 9.691 0 0 0 2.102-.218 5.033 5.033 0 0 0 1.717-.71 3.34 3.34 0 0 0 1.144-1.293c.289-.62.427-1.3.405-1.983a4.453 4.453 0 0 0-.227-1.5 2.915 2.915 0 0 0-.651-1.065ZM64.78 9.337a4.24 4.24 0 0 0-2.358-.621 6.022 6.022 0 0 0-1.46.187 6.346 6.346 0 0 0-1.757.745v-.913l-2.012.316V23.14h2.012v-4.418l.04.018c.364.151.745.26 1.134.326.46.075.925.112 1.391.108a4.93 4.93 0 0 0 2.536-.651 4.684 4.684 0 0 0 1.776-1.885 6.3 6.3 0 0 0 .66-3.009 6.128 6.128 0 0 0-.503-2.565 3.96 3.96 0 0 0-1.46-1.727Zm-.523 6.6c-.237.525-.635.96-1.135 1.244a3.646 3.646 0 0 1-1.805.414 5.624 5.624 0 0 1-1.815-.296c-.095-.032-.198-.07-.297-.106v-6.227c.026-.013.053-.028.08-.04.288-.132.558-.244.808-.336a4.054 4.054 0 0 1 1.401-.256 3.648 3.648 0 0 1 1.756.384c.476.26.849.674 1.056 1.174.25.64.368 1.325.345 2.013a4.711 4.711 0 0 1-.394 2.033ZM76.363 9.347a5.413 5.413 0 0 0-2.674-.631 5.388 5.388 0 0 0-2.694.65 4.55 4.55 0 0 0-1.796 1.836 5.804 5.804 0 0 0-.64 2.802 6.05 6.05 0 0 0 .601 2.792 4.12 4.12 0 0 0 1.727 1.786c.802.42 1.698.63 2.604.611a5.562 5.562 0 0 0 2.723-.65 4.596 4.596 0 0 0 1.846-1.856 5.816 5.816 0 0 0 .66-2.84 5.72 5.72 0 0 0-.611-2.714 4.313 4.313 0 0 0-1.746-1.786Zm-.119 6.61a2.692 2.692 0 0 1-1.075 1.234 3.067 3.067 0 0 1-1.579.404 2.807 2.807 0 0 1-1.54-.414 2.778 2.778 0 0 1-1.025-1.243 4.976 4.976 0 0 1-.375-2.052 4.648 4.648 0 0 1 .375-1.994c.221-.494.59-.907 1.056-1.184a3.19 3.19 0 0 1 1.627-.394c.444-.011.885.073 1.293.246.357.162.67.41.908.72.254.34.438.725.542 1.136.123.48.183.974.178 1.47a4.914 4.914 0 0 1-.385 2.072ZM85.291 8.863c-.369.1-.721.253-1.046.454-.336.21-.648.459-.927.74-.047.047-.092.099-.138.148v-1.47l-2.013.296v9.965h2.013v-7.455a5.037 5.037 0 0 1 1.076-.576c.203-.079.41-.148.62-.207a4.224 4.224 0 0 1 1.382-.148l.237-1.855a3.771 3.771 0 0 0-1.204.108ZM93.855 17.349c-.093.02-.195.039-.306.059l-.335.059c-.108.02-.217.033-.326.04-.106.006-.204.01-.296.01a1.997 1.997 0 0 1-.878-.178 1.276 1.276 0 0 1-.563-.523 1.666 1.666 0 0 1-.197-.839v-5.466h2.783l.217-1.578h-3V5.815l-2.012.71v2.408h-1.52l-.217 1.578h1.737v5.88c-.01.393.05.784.177 1.155.102.294.26.565.464.799.187.209.416.376.67.493.261.12.537.207.82.257.28.052.563.078.848.079.21 0 .417-.007.622-.02a6.737 6.737 0 0 0 1.046-.148c.15-.033.279-.062.384-.088l.119-1.639c-.077.03-.156.053-.237.07Z"/></svg>
